src/topics/icons/codepush.svg

<svg height="118" preserveAspectRatio="xMidYMid" viewBox="0 0 256 118" width="256" xmlns="http://www.w3.org/2000/svg"><path d="m60.3400512 68.1619096h-23.1862234c-3.3522251 0-5.5870418.8380563-7.2631543 3.9109293-6.145746 12.8501961-12.570844 25.7003921-18.995942 38.5505881-2.23481675 4.469634-.5587042 6.70445 5.3076896 6.70445h42.7408696c5.0283376 0 8.1012106-1.955464 10.0566752-6.145746 5.8663939-12.5708437 11.7327877-25.4210398 18.1578858-37.9918838 2.2348167-4.4696334.2793521-5.3076897-4.1902814-5.3076897-7.5425064.2793521-15.0850128.2793521-22.6275191.2793521zm143.5869738-6.1457459c-6.983802-15.9230691-7.542507-31.2874339-1.396761-46.9311509 1.676113-4.1902813 0-4.4696334-3.910929-5.0283376-15.364365-2.23481672-11.453436 16.7611253-24.02428 17.8785337-1.955464.2793521-2.514168 2.2348167-2.514168 4.1902813.558704 7.2631543-3.91093 16.7611253 8.939266 19.5546462 1.396761.2793521 3.072873 2.2348167 3.631578 3.6315772 3.631577 8.6599147 10.336027 8.6599147 19.275294 6.7044501zm-203.927025-59.78134699c23.1862234 14.24695649 48.8866155 11.17408359 74.5870077 10.61537939-2.5141688-8.10121059-7.5425064-10.89473148-15.3643649-10.61537939zm154.761057 37.43317989v-30.44937767c0-1.95546462.279352-4.19028133-2.793521-4.46963342-2.234816 0-3.072873 1.95546462-2.793521 3.63157715.558705 8.10121054-3.352225 15.64371694-2.793521 24.02427964.838057 12.0121398-.279352 24.0242796 2.514169 35.7570673.558704 1.9554647-.558704 5.3076897 2.514169 5.5870418 3.631577.2793521 3.352225-3.072873 3.352225-5.5870418zm11.732788-.5587042v-26.2590963c0-1.9554646-.279352-4.46963344-2.793521-4.46963344s-2.793521 2.51416884-2.793521 4.74898554v53.3562489c0 1.9554646.279352 4.4696334 2.793521 4.4696334s2.793521-2.5141688 2.793521-4.7489855zm60.619403-11.7327877h15.643717c1.955465 0 3.910929-.5587042 3.910929-2.7935209 0-1.3967604-1.39676-2.5141688-3.072873-2.5141688h-32.404842c-1.955465 0-3.631577 1.1174084-3.352225 3.072873.279352 1.6761125 1.955465 1.9554646 3.631577 1.9554646 5.028338.2793521 10.336027.2793521 15.643717.2793521zm8.659915 5.0283376h-14.805661c-2.234817 0-4.748985.2793521-4.469633 2.7935209.279352 2.2348167 2.514169 2.2348167 4.190281 2.2348167h30.449378c1.955464 0 4.190281-.2793521 4.190281-2.5141688 0-1.9554646-1.676112-2.7935209-3.910929-2.7935209-5.30769.2793521-10.336027.2793521-15.643717.2793521zm-6.70445 11.4534356h-14.805661c-1.676113 0-4.190281 0-4.469633 1.9554646 0 2.2348167 1.955464 3.072873 4.469633 3.072873h30.72873c2.234816 0 3.910929-1.1174083 3.910929-2.7935209 0-1.9554646-2.234817-2.5141688-4.190281-2.5141688-5.028338.2793521-10.336028.2793521-15.643717.2793521z" fill="#57abdf"/><path d="m140.234749 0c0 25.141688.279352 48.0485592.279352 71.7934868 0 2.2348167.838056 5.5870418-2.234817 5.5870418-4.190281.279352-3.352225-3.6315772-3.072873-5.8663939 1.117408-7.2631543-1.676113-9.2186189-10.056675-8.9392668-29.0526175.5587041-58.1052347 0-87.1578519 0-15.0850128 0-25.4210401-8.9392669-25.7003922-21.2307588-.2793521-13.1295481 10.8947315-22.6275192 26.5384484-22.9068712 28.7732652 0 57.5465303-.2793521 86.3197957.279352 7.821858 0 11.732787-1.1174083 10.056675-8.9392668-.558704-3.35222506-.279352-6.98380221 1.39676-9.7773231z" fill="#57abdf"/><g fill="#7bcd33"><path d="m60.3400512 68.1619096h22.348167c4.4696335 0 6.4250981.5587042 4.1902814 5.3076897-6.145746 12.570844-12.0121398 25.4210401-18.1578858 37.9918837-1.9554646 3.91093-5.0283376 5.866394-10.0566752 5.866394h-42.7408695c-5.5870418 0-7.54250644-2.234816-5.3076897-6.70445 6.425098-12.850196 12.850196-25.700392 18.995942-38.5505881 1.3967604-3.072873 3.6315772-3.9109293 7.2631543-3.9109293z"/><path d="m203.927025 62.0161637c-8.939267 1.9554646-15.643717 1.9554646-18.995942-6.7044501-.558704-1.3967605-2.234817-3.3522251-3.631577-3.6315772-12.850197-3.072873-8.380563-12.2914919-8.939267-19.5546462-.279352-1.9554646.558704-3.9109292 2.514169-4.1902813 12.291491-.8380563 8.380562-20.11335042 24.024279-17.8785337 3.910929.5587042 5.587042.8380563 3.910929 5.0283376-6.425098 15.643717-5.866393 31.0080818 1.117409 46.9311509z"/><path d="m0 2.23481671c19.8339983 0 39.3886445.27935209 59.2226428 0 8.1012106 0 13.1295482 2.5141688 15.3643649 10.61537939-25.7003922.5587042-51.4007843 3.6315771-74.5870077-10.61537939z"/><path d="m154.761057 39.6679966v28.7732651c0 2.5141688.279352 5.8663939-3.352225 5.5870418-3.072873-.2793521-1.955465-3.3522251-2.514169-5.5870418-3.072873-11.7327877-1.955464-23.7449275-2.514169-35.7570673-.558704-8.3805627 3.352226-15.9230691 2.793521-24.02427965 0-1.67611253.558705-3.63157715 2.793521-3.63157715 3.072873 0 2.793521 2.51416879 2.793521 4.46963341z"/><path d="m166.493845 39.1092924v27.0971526c0 1.9554646-.279352 4.7489855-2.793521 4.7489855s-2.793521-2.5141688-2.793521-4.4696334v-53.3562489c0-1.9554647.279352-4.46963345 2.793521-4.74898554 2.514169 0 2.793521 2.51416884 2.793521 4.46963344z"/></g><path d="m227.113248 27.3765047h-15.643717c-1.39676 0-3.352225-.2793521-3.631577-1.9554646-.279352-1.9554647 1.39676-3.072873 3.352225-3.072873h32.404842c1.676113 0 3.352225 1.1174083 3.072873 2.5141688 0 1.9554646-1.955464 2.5141688-3.910929 2.7935209-5.30769-.2793521-10.336027-.2793521-15.643717-.2793521z" fill="#57abdf"/><path d="m235.773163 32.4048423h15.643717c1.955464 0 3.910929.8380563 3.910929 2.7935209 0 2.2348167-2.234817 2.5141688-4.190281 2.5141688h-30.449378c-1.955465 0-4.190281-.2793521-4.190281-2.2348167-.279352-2.7935209 2.234816-2.7935209 4.469633-2.7935209 5.028338-.5587042 9.777323-.2793521 14.805661-.2793521z" fill="#57abdf"/><path d="m229.068713 43.8582779h15.643717c1.955464 0 4.190281.5587042 4.190281 2.5141688 0 1.6761125-1.955465 2.7935209-3.910929 2.7935209h-30.72873c-2.514169 0-4.469633-.8380563-4.469633-3.072873s2.514168-1.9554646 4.469633-1.9554646c5.028338-.2793521 9.777323-.2793521 14.805661-.2793521z" fill="#57abdf"/></svg>

<?xml version="1.0" encoding="UTF-8" standalone="no"?>
<svg width="256px" height="118px" viewBox="0 0 256 118" version="1.1" xmlns="http://www.w3.org/2000/svg" xmlns:xlink="http://www.w3.org/1999/xlink" preserveAspectRatio="xMidYMid">
	<g>
		<path d="M60.3400512,68.1619096 L37.1538278,68.1619096 C33.8016027,68.1619096 31.566786,68.9999659 29.8906735,72.0728389 C23.7449275,84.923035 17.3198295,97.773231 10.8947315,110.623427 C8.65991475,115.093061 10.3360273,117.327877 16.2024211,117.327877 L58.9432907,117.327877 C63.9716283,117.327877 67.0445013,115.372413 68.9999659,111.182131 C74.8663598,98.6112873 80.7327536,85.7610912 87.1578517,73.1902472 C89.3926684,68.7206138 87.4372038,67.8825575 82.9675703,67.8825575 C75.4250639,68.1619096 67.8825575,68.1619096 60.3400512,68.1619096 L60.3400512,68.1619096 Z M203.927025,62.0161637 C196.943223,46.0930946 196.384518,30.7287298 202.530264,15.0850128 C204.206377,10.8947315 202.530264,10.6153794 198.619335,10.0566752 C183.25497,7.82185848 187.165899,26.8178005 174.595055,27.9352089 C172.639591,28.214561 172.080887,30.1700256 172.080887,32.1254902 C172.639591,39.3886445 168.169957,48.8866155 181.020153,51.6801364 C182.416914,51.9594885 184.093026,53.9149531 184.651731,55.3117136 C188.283308,63.9716283 194.987758,63.9716283 203.927025,62.0161637 L203.927025,62.0161637 Z M0,2.23481671 C23.1862234,16.4817732 48.8866155,13.4089003 74.5870077,12.8501961 C72.0728389,4.74898551 67.0445013,1.95546462 59.2226428,2.23481671 L0,2.23481671 L0,2.23481671 Z M154.761057,39.6679966 L154.761057,9.21861893 C154.761057,7.26315431 155.040409,5.0283376 151.967536,4.74898551 C149.73272,4.74898551 148.894663,6.70445013 149.174015,8.38056266 C149.73272,16.4817732 145.82179,24.0242796 146.380494,32.4048423 C147.218551,44.4169821 146.101142,56.4291219 148.894663,68.1619096 C149.453367,70.1173743 148.335959,73.4695993 151.408832,73.7489514 C155.040409,74.0283035 154.761057,70.6760784 154.761057,68.1619096 L154.761057,39.6679966 L154.761057,39.6679966 Z M166.493845,39.1092924 L166.493845,12.8501961 C166.493845,10.8947315 166.214493,8.38056266 163.700324,8.38056266 C161.186155,8.38056266 160.906803,10.8947315 160.906803,13.1295482 L160.906803,66.4857971 C160.906803,68.4412617 161.186155,70.9554305 163.700324,70.9554305 C166.214493,70.9554305 166.493845,68.4412617 166.493845,66.206445 L166.493845,39.1092924 L166.493845,39.1092924 Z M227.113248,27.3765047 L242.756965,27.3765047 C244.71243,27.3765047 246.667894,26.8178005 246.667894,24.5829838 C246.667894,23.1862234 245.271134,22.068815 243.595021,22.068815 L211.190179,22.068815 C209.234714,22.068815 207.558602,23.1862234 207.837954,25.141688 C208.117306,26.8178005 209.793419,27.0971526 211.469531,27.0971526 C216.497869,27.3765047 221.805558,27.3765047 227.113248,27.3765047 L227.113248,27.3765047 Z M235.773163,32.4048423 L220.967502,32.4048423 C218.732685,32.4048423 216.218517,32.6841944 216.497869,35.1983632 C216.777221,37.4331799 219.012038,37.4331799 220.68815,37.4331799 L251.137528,37.4331799 C253.092992,37.4331799 255.327809,37.1538278 255.327809,34.9190111 C255.327809,32.9635465 253.651697,32.1254902 251.41688,32.1254902 C246.10919,32.4048423 241.080853,32.4048423 235.773163,32.4048423 L235.773163,32.4048423 Z M229.068713,43.8582779 L214.263052,43.8582779 C212.586939,43.8582779 210.072771,43.8582779 209.793419,45.8137425 C209.793419,48.0485592 211.748883,48.8866155 214.263052,48.8866155 L244.991782,48.8866155 C247.226598,48.8866155 248.902711,47.7692072 248.902711,46.0930946 C248.902711,44.13763 246.667894,43.5789258 244.71243,43.5789258 C239.684092,43.8582779 234.376402,43.8582779 229.068713,43.8582779 L229.068713,43.8582779 Z" fill="#57ABDF"></path>
		<path d="M140.234749,0 C140.234749,25.141688 140.514101,48.0485592 140.514101,71.7934868 C140.514101,74.0283035 141.352157,77.3805286 138.279284,77.3805286 C134.089003,77.6598806 134.927059,73.7489514 135.206411,71.5141347 C136.323819,64.2509804 133.530298,62.2955158 125.149736,62.5748679 C96.0971185,63.133572 67.0445013,62.5748679 37.9918841,62.5748679 C22.9068713,62.5748679 12.570844,53.635601 12.2914919,41.3441091 C12.0121398,28.214561 23.1862234,18.7165899 38.8299403,18.4372379 C67.6032055,18.4372379 96.3764706,18.1578858 125.149736,18.7165899 C132.971594,18.7165899 136.882523,17.5991816 135.206411,9.7773231 C134.647707,6.42509804 134.927059,2.79352089 136.603171,0 L140.234749,0 L140.234749,0 Z" fill="#57ABDF"></path>
		<path d="M60.3400512,68.1619096 L82.6882182,68.1619096 C87.1578517,68.1619096 89.1133163,68.7206138 86.8784996,73.4695993 C80.7327536,86.0404433 74.8663598,98.8906394 68.7206138,111.461483 C66.7651492,115.372413 63.6922762,117.327877 58.6639386,117.327877 L15.9230691,117.327877 C10.3360273,117.327877 8.38056266,115.093061 10.6153794,110.623427 C17.0404774,97.773231 23.4655754,84.923035 29.6113214,72.0728389 C31.0080818,68.9999659 33.2428986,68.1619096 36.8744757,68.1619096 C44.9756863,68.1619096 52.7975448,68.1619096 60.3400512,68.1619096 L60.3400512,68.1619096 Z" fill="#7BCD33"></path>
		<path d="M203.927025,62.0161637 C194.987758,63.9716283 188.283308,63.9716283 184.931083,55.3117136 C184.372379,53.9149531 182.696266,51.9594885 181.299506,51.6801364 C168.449309,48.6072634 172.918943,39.3886445 172.360239,32.1254902 C172.080887,30.1700256 172.918943,28.214561 174.874408,27.9352089 C187.165899,27.0971526 183.25497,7.82185848 198.898687,10.0566752 C202.809616,10.6153794 204.485729,10.8947315 202.809616,15.0850128 C196.384518,30.7287298 196.943223,46.0930946 203.927025,62.0161637 L203.927025,62.0161637 Z" fill="#7BCD33"></path>
		<path d="M0,2.23481671 C19.8339983,2.23481671 39.3886445,2.5141688 59.2226428,2.23481671 C67.3238534,2.23481671 72.352191,4.74898551 74.5870077,12.8501961 C48.8866155,13.4089003 23.1862234,16.4817732 0,2.23481671 L0,2.23481671 Z" fill="#7BCD33"></path>
		<path d="M154.761057,39.6679966 L154.761057,68.4412617 C154.761057,70.9554305 155.040409,74.3076556 151.408832,74.0283035 C148.335959,73.7489514 149.453367,70.6760784 148.894663,68.4412617 C145.82179,56.708474 146.939199,44.6963342 146.380494,32.6841944 C145.82179,24.3036317 149.73272,16.7611253 149.174015,8.65991475 C149.174015,6.98380222 149.73272,5.0283376 151.967536,5.0283376 C155.040409,5.0283376 154.761057,7.54250639 154.761057,9.49797101 L154.761057,39.6679966 L154.761057,39.6679966 Z" fill="#7BCD33"></path>
		<path d="M166.493845,39.1092924 L166.493845,66.206445 C166.493845,68.1619096 166.214493,70.9554305 163.700324,70.9554305 C161.186155,70.9554305 160.906803,68.4412617 160.906803,66.4857971 L160.906803,13.1295482 C160.906803,11.1740835 161.186155,8.65991475 163.700324,8.38056266 C166.214493,8.38056266 166.493845,10.8947315 166.493845,12.8501961 L166.493845,39.1092924 L166.493845,39.1092924 Z" fill="#7BCD33"></path>
		<path d="M227.113248,27.3765047 L211.469531,27.3765047 C210.072771,27.3765047 208.117306,27.0971526 207.837954,25.4210401 C207.558602,23.4655754 209.234714,22.3481671 211.190179,22.3481671 L243.595021,22.3481671 C245.271134,22.3481671 246.947246,23.4655754 246.667894,24.8623359 C246.667894,26.8178005 244.71243,27.3765047 242.756965,27.6558568 C237.449275,27.3765047 232.420938,27.3765047 227.113248,27.3765047 L227.113248,27.3765047 Z" fill="#57ABDF"></path>
		<path d="M235.773163,32.4048423 L251.41688,32.4048423 C253.372344,32.4048423 255.327809,33.2428986 255.327809,35.1983632 C255.327809,37.4331799 253.092992,37.712532 251.137528,37.712532 L220.68815,37.712532 C218.732685,37.712532 216.497869,37.4331799 216.497869,35.4777153 C216.218517,32.6841944 218.732685,32.6841944 220.967502,32.6841944 C225.99584,32.1254902 230.744825,32.4048423 235.773163,32.4048423 L235.773163,32.4048423 Z" fill="#57ABDF"></path>
		<path d="M229.068713,43.8582779 L244.71243,43.8582779 C246.667894,43.8582779 248.902711,44.4169821 248.902711,46.3724467 C248.902711,48.0485592 246.947246,49.1659676 244.991782,49.1659676 L214.263052,49.1659676 C211.748883,49.1659676 209.793419,48.3279113 209.793419,46.0930946 C209.793419,43.8582779 212.307587,44.13763 214.263052,44.13763 C219.29139,43.8582779 224.040375,43.8582779 229.068713,43.8582779 L229.068713,43.8582779 Z" fill="#57ABDF"></path>
	</g>
</svg>
